images/heart5.svg

<svg width="224" height="70" viewBox="0 0 224 70" fill="none" xmlns="http://www.w3.org/2000/svg">
<path d="M77.2585 30.4087C77.2585 24.4576 82.6369 22.2432 88.613 22.2432C94.589 22.2432 99.9215 24.4576 99.9215 30.4087V60.3029C99.9215 66.3002 94.543 68.4685 88.613 68.4685C82.6829 68.4685 77.2585 66.2541 77.2585 60.3029V30.4087ZM90.3138 31.5621C90.3138 30.3165 90.3138 28.6095 88.613 28.6095C86.9121 28.6095 86.9121 30.3165 86.9121 31.5621V58.8728C86.9121 60.1184 86.9121 61.8253 88.613 61.8253C90.3138 61.8253 90.3138 60.1184 90.3138 58.8728V31.5621ZM103.553 67.592V23.1197H114.908C120.838 23.1197 126.262 25.3341 126.262 32.3463V35.8524C126.318 36.8402 126.162 37.8286 125.805 38.7508C125.448 39.673 124.898 40.5077 124.192 41.1985C123.486 41.8893 122.641 42.4202 121.714 42.7554C120.786 43.0905 119.798 43.2222 118.815 43.1415C124.883 43.4644 126.262 45.5865 126.262 50.7073V59.5648C126.213 62.278 126.698 64.9743 127.687 67.4997H117.896C116.936 65.7368 116.49 63.7384 116.608 61.7331V51.5377C116.608 48.7697 116.608 46.5553 113.207 46.5553V67.4997L103.553 67.592ZM113.023 41.4807H114.172C115.735 41.4807 116.425 40.7887 116.425 38.6665V32.0695C116.425 29.9474 115.735 29.2554 114.172 29.2554H113.023V41.4807ZM129.526 30.4087C129.526 24.4576 134.904 22.2432 140.88 22.2432C146.856 22.2432 152.189 24.4576 152.189 30.4087V60.3029C152.189 66.3002 146.811 68.4685 140.88 68.4685C134.95 68.4685 129.526 66.2541 129.526 60.3029V30.4087ZM142.719 31.5621C142.719 30.3165 142.719 28.6095 141.018 28.6095C139.317 28.6095 139.317 30.3165 139.317 31.5621V58.8728C139.317 60.1184 139.317 61.8253 141.018 61.8253C142.719 61.8253 142.719 60.1184 142.719 58.8728V31.5621ZM155.729 67.592V23.1197H168.462L172.829 51.4454L172.875 52.5065H173.013V23.1197H180.69V67.592H168.784L163.543 33.638L163.497 32.3925H163.406V67.592H155.729ZM201.193 30.4087C201.193 24.4576 206.571 22.2432 212.547 22.2432C218.523 22.2432 223.856 24.4576 223.856 30.4087V60.3029C223.856 66.3002 218.477 68.4685 212.547 68.4685C206.617 68.4685 201.193 66.2541 201.193 60.3029V30.4087ZM214.248 31.5621C214.248 30.3165 214.248 28.6095 212.547 28.6095C210.846 28.6095 210.846 30.3165 210.846 31.5621V58.8728C210.846 60.1184 210.846 61.8253 212.547 61.8253C214.248 61.8253 214.248 60.1184 214.248 58.8728V31.5621ZM199.584 23.1197H182.575V29.809H186.252V67.592H195.906V29.809H199.584V23.1197ZM81.028 12.2323H56.8939V19.3829H64.0192V67.592H73.8567V19.3829H81.028V12.2323ZM56.1584 69.2066V68.9298C49.8029 66.1717 42.8893 64.9547 35.9777 65.3776H0.213379V67.8226H48.4815C51.0982 68.0035 53.6795 68.5309 56.1584 69.3912M41.9078 2.12918L40.4828 0.79132C40.272 0.701225 40.0453 0.654785 39.8162 0.654785C39.5871 0.654785 39.3604 0.701225 39.1497 0.79132L36.9891 1.99078V12.5552C35.3319 15.2568 32.961 17.4446 30.1396 18.8755C29.8225 19.0119 29.5576 19.2469 29.3837 19.5459C29.2099 19.845 29.1365 20.1922 29.1742 20.5363V59.8877C27.7492 59.8877 25.4507 60.2107 25.4507 60.2107V26.9026C25.4507 25.657 24.8991 25.288 23.7498 25.0112C19.4516 24.0174 15.2629 22.5956 11.2461 20.7669V13.9392L9.4073 13.0166C8.90103 12.8408 8.35061 12.8408 7.84434 13.0166C7.06263 13.3905 6.30972 13.8223 5.59182 14.3083C4.02068 15.2061 2.70278 16.4901 1.76195 18.0395C0.821114 19.5889 0.288235 21.353 0.213379 23.1658V63.8552H3.84498V23.1658C3.81811 21.933 4.12447 20.7158 4.73151 19.6436C5.33855 18.5714 6.22361 17.6842 7.2927 17.0763H7.56852V63.8552H11.1541V24.6421C14.0043 25.7032 15.7511 26.4413 18.8311 27.4101L21.7731 28.1943V60.7643C18.3034 61.3982 14.923 62.4515 11.7058 63.9013H18.6012C24.0549 61.461 29.9605 60.2034 35.9318 60.2107L32.622 59.9339V21.5512H32.9897C34.4659 20.6481 35.8116 19.546 36.9891 18.2757V63.8552H40.7126V6.32729C42.9502 9.29279 44.1899 12.8957 44.2523 16.615V64.2243C45.3555 64.2243 46.7346 64.501 47.8839 64.824V16.5227C47.735 11.1481 45.6057 6.01977 41.9078 2.12918Z" fill="#1F305E"/>
</svg>

<svg width="224" height="70" fill="none" xmlns="http://www.w3.org/2000/svg"><path d="M77.258 30.409c0-5.951 5.379-8.166 11.355-8.166 5.976 0 11.308 2.215 11.308 8.166v29.894c0 5.997-5.378 8.166-11.308 8.166s-11.355-2.215-11.355-8.166V30.409Zm13.056 1.153c0-1.245 0-2.953-1.701-2.953-1.7 0-1.7 1.707-1.7 2.953v27.31c0 1.246 0 2.953 1.7 2.953s1.7-1.707 1.7-2.952v-27.31Zm13.239 36.03V23.12h11.355c5.93 0 11.354 2.214 11.354 9.226v3.506a6.941 6.941 0 0 1-2.07 5.347 6.876 6.876 0 0 1-5.377 1.943c6.068.322 7.447 2.444 7.447 7.565v8.858a20.736 20.736 0 0 0 1.425 7.935h-9.791a10.74 10.74 0 0 1-1.288-5.767V51.538c0-2.768 0-4.983-3.401-4.983V67.5l-9.654.092Zm9.47-26.111h1.149c1.563 0 2.253-.692 2.253-2.815V32.07c0-2.123-.69-2.815-2.253-2.815h-1.149v12.226Zm16.503-11.072c0-5.951 5.378-8.166 11.354-8.166 5.976 0 11.309 2.215 11.309 8.166v29.894c0 5.997-5.378 8.166-11.309 8.166-5.93 0-11.354-2.215-11.354-8.166V30.409Zm13.193 1.153c0-1.245 0-2.953-1.701-2.953s-1.701 1.707-1.701 2.953v27.31c0 1.246 0 2.953 1.701 2.953s1.701-1.707 1.701-2.952v-27.31Zm13.01 36.03V23.12h12.733l4.367 28.325.046 1.062h.138V23.12h7.677v44.472h-11.906l-5.241-33.954-.046-1.245h-.091v35.199h-7.677Zm45.464-37.183c0-5.951 5.378-8.166 11.354-8.166 5.976 0 11.309 2.215 11.309 8.166v29.894c0 5.997-5.379 8.166-11.309 8.166s-11.354-2.215-11.354-8.166V30.409Zm13.055 1.153c0-1.245 0-2.953-1.701-2.953s-1.701 1.707-1.701 2.953v27.31c0 1.246 0 2.953 1.701 2.953s1.701-1.707 1.701-2.952v-27.31Zm-14.664-8.442h-17.009v6.689h3.677v37.783h9.654V29.809h3.678v-6.69ZM81.028 12.232H56.894v7.15h7.125v48.21h9.838v-48.21h7.171v-7.15Zm-24.87 56.975v-.277a43.947 43.947 0 0 0-20.18-3.552H.213v2.445h48.268c2.617.18 5.198.708 7.677 1.568M41.908 2.13 40.483.791a1.696 1.696 0 0 0-1.333 0l-2.16 1.2v10.564a17.124 17.124 0 0 1-6.85 6.32 1.611 1.611 0 0 0-.966 1.661v39.352c-1.425 0-3.723.323-3.723.323V26.903c0-1.246-.552-1.615-1.701-1.892a66.131 66.131 0 0 1-12.504-4.244v-6.828l-1.839-.922a2.382 2.382 0 0 0-1.563 0c-.781.373-1.534.805-2.252 1.291a10.682 10.682 0 0 0-3.83 3.732 10.73 10.73 0 0 0-1.549 5.126v40.69h3.632v-40.69a6.847 6.847 0 0 1 .887-3.522 6.815 6.815 0 0 1 2.56-2.568h.277v46.78h3.585V24.641c2.85 1.061 4.597 1.8 7.677 2.768l2.942.784v32.57a43.556 43.556 0 0 0-10.067 3.137H18.6a42.303 42.303 0 0 1 17.33-3.69l-3.309-.277V21.55h.368a18.908 18.908 0 0 0 4-3.275v45.58h3.723V6.326a17.57 17.57 0 0 1 3.54 10.288v47.61c1.102 0 2.482.276 3.63.599V16.523a21.768 21.768 0 0 0-5.975-14.394Z" fill="#1F305E"/></svg>
